svgs/sharp-solid/chart-mixed.svg

<svg xmlns="http://www.w3.org/2000/svg" viewBox="0 0 512 512"><!--! Font Awesome Pro 6.6.0 by @fontawesome - https://fontawesome.com License - https://fontawesome.com/license (Commercial License) Copyright 2024 Fonticons, Inc. --><path d="M340 217L500 89 460 39 319.4 151.5 211.2 70.4 191.4 55.5 172 71 12 199l40 50L192.6 136.5l108.2 81.1 19.8 14.9L340 217zm-180 7l0 256 64 0 0-256-64 0zM32 320l0 160 64 0 0-160-64 0zm320-32l-64 0 0 192 64 0 0-192zm64-64l0 256 64 0 0-256-64 0z"/></svg>

<svg xmlns="http://www.w3.org/2000/svg" viewBox="0 0 512 512"><!--! Font Awesome Pro 6.4.2 by @fontawesome - https://fontawesome.com License - https://fontawesome.com/license (Commercial License) Copyright 2023 Fonticons, Inc. --><path d="M340 217L500 89 460 39 319.4 151.5 211.2 70.4 191.4 55.5 172 71 12 199l40 50L192.6 136.5l108.2 81.1 19.8 14.9L340 217zm-180 7V480h64V224H160zM32 320V480H96V320H32zm320-32H288V480h64V288zm64-64V480h64V224H416z"/></svg>
